inst/assets/svg/wi-wind-beaufort-11.svg

<?xml version="1.0" encoding="UTF-8"?>
<svg xmlns="http://www.w3.org/2000/svg" xmlns:xlink="http://www.w3.org/1999/xlink" width="30pt" height="30pt" viewBox="0 0 30 30" version="1.1">
<g id="surface1041">
<path style=" stroke:none;fill-rule:nonzero;fill:rgb(0%,0%,0%);fill-opacity:1;" d="M 4.679688 13.5 C 4.679688 13.679688 4.738281 13.808594 4.851563 13.898438 C 4.96875 14.011719 5.109375 14.070313 5.269531 14.070313 L 15.671875 14.070313 C 15.839844 14.070313 16 14.128906 16.128906 14.261719 C 16.261719 14.378906 16.328125 14.539063 16.328125 14.71875 C 16.328125 14.898438 16.261719 15.058594 16.128906 15.191406 C 16 15.320313 15.851563 15.390625 15.671875 15.390625 C 15.488281 15.390625 15.328125 15.320313 15.199219 15.179688 C 15.070313 15.070313 14.941406 15.019531 14.800781 15.019531 C 14.640625 15.019531 14.5 15.070313 14.390625 15.179688 C 14.28125 15.289063 14.230469 15.421875 14.230469 15.570313 C 14.230469 15.730469 14.289063 15.871094 14.398438 15.980469 C 14.761719 16.339844 15.179688 16.511719 15.679688 16.511719 C 16.179688 16.511719 16.589844 16.339844 16.941406 15.988281 C 17.289063 15.640625 17.460938 15.21875 17.460938 14.71875 C 17.460938 14.230469 17.289063 13.800781 16.941406 13.449219 C 16.589844 13.101563 16.171875 12.921875 15.679688 12.921875 L 5.269531 12.921875 C 5.109375 12.921875 4.96875 12.980469 4.851563 13.089844 C 4.738281 13.210938 4.679688 13.339844 4.679688 13.5 Z M 4.679688 11.480469 C 4.679688 11.648438 4.738281 11.78125 4.851563 11.871094 C 4.96875 11.980469 5.109375 12.03125 5.269531 12.03125 L 19.078125 12.03125 C 19.570313 12.03125 20 11.851563 20.351563 11.511719 C 20.699219 11.160156 20.871094 10.738281 20.871094 10.238281 C 20.871094 9.75 20.699219 9.328125 20.351563 8.980469 C 20 8.628906 19.578125 8.460938 19.078125 8.460938 C 18.589844 8.460938 18.171875 8.628906 17.808594 8.96875 C 17.699219 9.089844 17.648438 9.238281 17.648438 9.390625 C 17.648438 9.550781 17.699219 9.691406 17.808594 9.789063 C 17.921875 9.890625 18.050781 9.941406 18.210938 9.941406 C 18.359375 9.941406 18.5 9.890625 18.621094 9.78125 C 18.738281 9.660156 18.890625 9.601563 19.070313 9.601563 C 19.238281 9.601563 19.398438 9.660156 19.53125 9.78125 C 19.660156 9.898438 19.730469 10.050781 19.730469 10.230469 C 19.730469 10.410156 19.660156 10.570313 19.53125 10.699219 C 19.398438 10.828125 19.25 10.898438 19.070313 10.898438 L 5.269531 10.898438 C 5.109375 10.898438 4.96875 10.960938 4.851563 11.070313 C 4.738281 11.179688 4.679688 11.320313 4.679688 11.480469 Z M 17.570313 21.898438 L 20.039063 21.898438 L 21.691406 13.910156 L 19.21875 13.910156 Z M 21.300781 21.898438 L 23.761719 21.898438 L 25.410156 13.910156 L 22.960938 13.910156 Z M 21.300781 21.898438 "/>
</g>
</svg>

<?xml version="1.0" encoding="utf-8"?>
<!-- Generator: Adobe Illustrator 22.0.1, SVG Export Plug-In . SVG Version: 6.00 Build 0)  -->
<svg version="1.1" id="Layer_1" xmlns="http://www.w3.org/2000/svg" xmlns:xlink="http://www.w3.org/1999/xlink" x="0px" y="0px"
	 viewBox="0 0 30 30" style="enable-background:new 0 0 30 30;" xml:space="preserve">
<path d="M4.68,13.5c0,0.18,0.06,0.31,0.17,0.4c0.12,0.11,0.26,0.17,0.42,0.17h10.4c0.17,0,0.33,0.06,0.46,0.19
	c0.13,0.12,0.2,0.28,0.2,0.46s-0.07,0.34-0.2,0.47c-0.13,0.13-0.28,0.2-0.46,0.2c-0.18,0-0.34-0.07-0.47-0.21
	c-0.13-0.11-0.26-0.16-0.4-0.16c-0.16,0-0.3,0.05-0.41,0.16c-0.11,0.11-0.16,0.24-0.16,0.39c0,0.16,0.06,0.3,0.17,0.41
	c0.36,0.36,0.78,0.53,1.28,0.53s0.91-0.17,1.26-0.52c0.35-0.35,0.52-0.77,0.52-1.27c0-0.49-0.17-0.92-0.52-1.27
	c-0.35-0.35-0.77-0.53-1.26-0.53H5.27c-0.16,0-0.3,0.06-0.42,0.17C4.74,13.21,4.68,13.34,4.68,13.5z M4.68,11.48
	c0,0.17,0.06,0.3,0.17,0.39c0.12,0.11,0.26,0.16,0.42,0.16h13.81c0.49,0,0.92-0.18,1.27-0.52c0.35-0.35,0.52-0.77,0.52-1.27
	c0-0.49-0.17-0.91-0.52-1.26s-0.77-0.52-1.27-0.52c-0.49,0-0.91,0.17-1.27,0.51c-0.11,0.12-0.16,0.27-0.16,0.42
	c0,0.16,0.05,0.3,0.16,0.4c0.11,0.1,0.24,0.15,0.4,0.15c0.15,0,0.29-0.05,0.41-0.16c0.12-0.12,0.27-0.18,0.45-0.18
	c0.17,0,0.33,0.06,0.46,0.18c0.13,0.12,0.2,0.27,0.2,0.45c0,0.18-0.07,0.34-0.2,0.47c-0.13,0.13-0.28,0.2-0.46,0.2H5.27
	c-0.16,0-0.3,0.06-0.42,0.17C4.74,11.18,4.68,11.32,4.68,11.48z M17.57,21.9h2.47l1.65-7.99h-2.47L17.57,21.9z M21.3,21.9h2.46
	l1.65-7.99h-2.45L21.3,21.9z"/>
</svg>
